X:1
T:A remar
M:4/4
L: 1/4
Q: 1/4=60
V: Der
%%MIDI program 0
K:C clef=treble
GEE2 | FDD2 | CDEF | GGG2 | 
GEE2 | ADD2 | CDEF | C4 | 
DDDD | DEF2 | z4 | z4 | 
GEE2 | FDD2 | CDEF | C4 | 
V: Izq
K:C clef=bass
%%MIDI program 1
[C,E,G,]2z2 | [G,F,B,,]2z2 | ([C,(E,(G,]4 | [G,)E,)C,]4) | 
[C,E,G,]2z2 | [G,F,B,,]2z2 | ([C,(E,(G,]4 | [G,)E,)C,]4) | 
z4 | z4 | E,E,E,E, | E,F,G,2 | 
[C,E,G,]2z2 | [G,F,B,,]2z2 | ([C,(E,(G,]4 | [G,)E,)C,]4) | 
